assets/icons/minus-circ.svg

<?xml version="1.0" encoding="UTF-8"?>
<svg width="24px" height="24px" viewBox="0 0 24 24" version="1.1" xmlns="http://www.w3.org/2000/svg" xmlns:xlink="http://www.w3.org/1999/xlink">
    <title>VW/Icons/minus-circ</title>
    <defs>
        <path d="M12.0096254,0.800771247 C18.1508019,0.800771247 23.2331549,5.81253597 23.2331549,12.0243007 C23.2331549,18.1654772 18.1508019,23.1772419 12.0096254,23.1772419 C5.79786068,23.1772419 0.786095953,18.1654772 0.786095953,12.0243007 C0.786095953,5.81253597 5.79786068,0.800771247 12.0096254,0.800771247 Z M12.0096254,2.07135949 C6.57433127,2.07135949 2.12727243,6.51841833 2.12727243,11.9537125 C2.12727243,17.3890066 6.57433127,21.8360655 12.0096254,21.8360655 C17.4449196,21.8360655 21.8919784,17.3890066 21.8919784,11.9537125 C21.8919784,6.51841833 17.4449196,2.07135949 12.0096254,2.07135949 Z M16.5272725,11.3184184 L16.5272725,12.5890066 L7.4213901,12.5890066 L7.4213901,11.3184184 L16.5272725,11.3184184 Z" id="path-1"></path>
    </defs>
    <g id="VW/Icons/minus-circ" stroke="none" stroke-width="1" fill="none" fill-rule="evenodd">
        <mask id="mask-2" fill="white">
            <use xlink:href="#path-1"></use>
        </mask>
        <g id="Combined-Shape" fill-rule="nonzero"></g>
        <g id="Group" mask="url(#mask-2)" fill="#000000">
            <g id="🎨-color">
                <rect id="Swatch" x="0" y="0" width="24" height="24"></rect>
            </g>
        </g>
    </g>
</svg>

<svg
    xmlns="http://www.w3.org/2000/svg"    
    x="0px"
    y="0px"
    viewBox="0 0 24 24"
    aria-labelledby="chevron down"
    role="presentation"
  >
    <title  lang="en">chevron down</title>

    <g fill="currentColor">
	<path id="path-1_00000016783930033400532030000017466595353022252166_" d="M12,0.8c6.1,0,11.2,5,11.2,11.2
		c0,6.1-5.1,11.2-11.2,11.2c-6.2,0-11.2-5-11.2-11.2C0.8,5.8,5.8,0.8,12,0.8z M12,2.1c-5.4,0-9.9,4.4-9.9,9.9s4.4,9.9,9.9,9.9
		s9.9-4.4,9.9-9.9S17.4,2.1,12,2.1z M16.5,11.3v1.3H7.4v-1.3H16.5z"/>
</g>
</svg>
